X:214 
T:A Trip To Galway
F:file ID: cre.5/214trip_g
B:CRE5.040 (Turas go Gaillimh)
M:6/8
Q:160
R:jig
K:Em
d|BGE EGE|EGB d^cd|AFD DFD|DFA d^cd|
BGE EGE|EGB d2e|fdB AFD|EFE E2:|
B|eBe gfe|bge efg|d3 fed|afd def|
eBe gfe|bge edB|ABA GAB|GEE E2:|

%%%

